X:1
T:[ID 7-135a]
T:[ID 7-135a]
T:Bezeichnung standardisiert: March March 4.
T:Urheber unbekannt Datum in der hier transkribierten schriftlichen Quelle: 1776 - 1791
C:Urheber unbekannt
C:Datum in der hier transkribierten schriftlichen Quelle: 1776 - 1791
L:1/8
M:2/4
K:D
V:1 treble 
V:1
 A | dA FA | dA FA | dcde | fe d2 | fefg | a2 gf | e2 ee | e3 :: e | efed | cB A2 | edef | g3 e | %14
 fefg | abag | f2 ec | d3 :| %18

